X:1
T:The Avondale Mine Disaster
M:2/4
L:1/8
K:G
 A| GF DE| FG AF| GF D^C| D2 z| A| cB AA| d/2 d3/2 GA| BB cB| A2 z|\
 A/2B/2| cB AA| d G2 G/2A/2| BG cB| A2 z| G| GA DE| F3/2 G/2 A3/2 F/2|\
 GF D^C| D2 z||
